packages/core/src/svgs/tokens/branded/PUMLX.svg

<svg width="24" height="24" viewBox="0 0 24 24" fill="none" xmlns="http://www.w3.org/2000/svg">
<path d="M10.2456 10.2339H7.1726C5.96576 10.2339 4.52932 10.5459 4.31151 11.8941C4.05837 13.4011 5.34173 13.7661 6.60157 13.7661H11.1699C12.6592 13.7661 13.819 12.1002 14.031 10.8403L14.1193 10.2339H12.9654L12.8948 10.646C12.7653 11.4584 12.1118 12.5769 11.164 12.5888H6.70164C6.21302 12.5888 5.41827 12.5535 5.52424 11.8941C5.60665 11.4113 6.57801 11.4113 7.1726 11.4113H9.35083C9.53916 11.0169 9.90413 10.5989 10.2456 10.2339ZM10.54 9.94547C10.905 9.62761 11.3465 9.35673 11.8705 9.19781L12.518 6.11302H13.6366C13.6366 6.11302 13.401 7.63187 13.1656 9.05652H14.3135L14.9435 4.93561H11.5408L10.54 9.94547Z" fill="#FEFEFC"/>
<path d="M15.1554 11.0287L15.2909 10.2339H16.4917C16.4152 10.587 16.3505 10.9226 16.2799 11.217C15.8854 13.6483 13.7955 16.1209 11.1757 16.1209H6.60746C5.4124 16.1209 4.14669 15.8618 3.20477 15.0435C2.16277 14.131 1.85075 12.8301 2.06269 11.5114C2.47478 9.03292 4.82959 7.87906 7.17851 7.87906H8.65615L9.79824 2.58075H17.887C17.887 2.58075 17.2865 6.14239 16.7214 9.05646H15.4969C15.9207 6.62512 16.4505 3.75815 16.4505 3.75815H10.7108L9.56857 9.05646H7.17262C5.2299 9.05646 3.27542 9.96313 3.14002 12.0765C3.12823 12.2531 3.13412 12.418 3.1459 12.5828C3.20477 13.195 3.48146 13.766 3.94653 14.1722C4.66475 14.8022 5.66555 14.9435 6.59569 14.9435H11.17C13.2304 14.9435 14.8433 12.9066 15.1554 11.0287Z" fill="#FEFEFC"/>
<path d="M13.1364 15.6677L11.853 16.121L11.4762 17.887H10.3576L10.6461 16.121H9.50405L9.05664 19.0645H12.4593L13.1364 15.6677Z" fill="#32D7AF"/>
<path d="M8.29712 16.1208C7.92624 18.2107 7.54948 20.2418 7.54948 20.2418H13.2893L14.4313 14.9435H16.8274C18.7701 14.9435 20.7247 14.0369 20.86 11.9234C20.8718 11.7468 20.8718 11.5819 20.8542 11.4171C20.8006 10.8043 20.5141 10.2354 20.0535 9.82766C19.3352 9.19772 18.3345 9.05643 17.4043 9.05643H12.8242C10.8992 9.05643 9.36852 10.8226 8.92115 12.5887H7.74374C8.22647 10.222 10.2692 7.87903 12.8242 7.87903H17.3926C18.5877 7.87903 19.8534 8.13805 20.7953 8.95634C21.8373 9.86887 22.1493 11.1698 21.9373 12.4885C21.5252 14.967 19.1704 16.1208 16.8215 16.1208H15.3557L14.2136 21.4192H6.11304C6.11304 21.4192 6.56634 18.7347 7.05497 16.1208H8.29712Z" fill="#32D7AF"/>
<path d="M10.1162 12.5887C10.5283 11.4467 11.5585 10.2339 12.8301 10.2339H17.3984C18.6583 10.2339 19.9417 10.5989 19.6945 12.106C19.4707 13.4541 18.0343 13.7661 16.8274 13.7661H15.238L15.8855 12.5887H16.8274C17.422 12.5887 18.3933 12.5887 18.4758 12.106C18.5818 11.4467 17.787 11.4112 17.2984 11.4112H12.8301C12.1649 11.4171 11.6409 11.9765 11.3466 12.5887H10.1162Z" fill="#32D7AF"/>
</svg>

<svg xmlns="http://www.w3.org/2000/svg" width="24" height="24" fill="none" viewBox="0 0 24 24">
    <path fill="#FEFEFC" d="M10.246 10.234H7.173c-1.207 0-2.644.312-2.861 1.66-.254 1.507 1.03 1.872 2.29 1.872h4.568c1.49 0 2.649-1.666 2.861-2.926l.088-.606h-1.154l-.07.412c-.13.812-.783 1.93-1.731 1.943H6.702c-.489 0-1.284-.036-1.178-.695.083-.483 1.054-.483 1.649-.483H9.35c.188-.394.553-.812.895-1.177m.294-.289a3.6 3.6 0 0 1 1.33-.747l.648-3.085h1.119s-.236 1.519-.471 2.944h1.147l.63-4.121H11.54z"/>
    <path fill="#FEFEFC" d="m15.155 11.029.136-.795h1.2c-.076.353-.14.689-.211.983-.395 2.431-2.485 4.904-5.104 4.904H6.607c-1.195 0-2.46-.26-3.402-1.077-1.042-.913-1.354-2.214-1.142-3.533C2.475 9.033 4.83 7.88 7.179 7.88h1.477l1.142-5.298h8.089s-.6 3.561-1.166 6.475h-1.224c.424-2.43.954-5.298.954-5.298h-5.74L9.569 9.056H7.173c-1.943 0-3.898.907-4.033 3.02-.012.177-.006.342.006.507.059.612.335 1.183.8 1.59.719.63 1.72.77 2.65.77h4.574c2.06 0 3.673-2.036 3.985-3.914"/>
    <path fill="#32D7AF" d="m13.136 15.668-1.283.453-.377 1.766h-1.118l.288-1.766H9.504l-.447 2.944h3.402z"/>
    <path fill="#32D7AF" d="M8.297 16.12c-.37 2.09-.748 4.122-.748 4.122h5.74l1.142-5.299h2.396c1.943 0 3.898-.906 4.033-3.02a3 3 0 0 0-.006-.506 2.4 2.4 0 0 0-.8-1.59c-.719-.63-1.72-.77-2.65-.77h-4.58c-1.925 0-3.455 1.766-3.903 3.532H7.744c.482-2.367 2.525-4.71 5.08-4.71h4.569c1.195 0 2.46.26 3.402 1.077 1.042.913 1.354 2.214 1.142 3.533-.412 2.478-2.767 3.632-5.116 3.632h-1.465l-1.142 5.298H6.113s.453-2.684.942-5.298z"/>
    <path fill="#32D7AF" d="M10.116 12.589c.412-1.142 1.443-2.355 2.714-2.355h4.568c1.26 0 2.544.365 2.297 1.872-.224 1.348-1.66 1.66-2.868 1.66h-1.589l.648-1.177h.941c.595 0 1.566 0 1.649-.483.106-.66-.689-.695-1.178-.695H12.83c-.665.006-1.19.566-1.483 1.178z"/>
</svg>
